X: 26299
T: Memories Of Eva
R: waltz
M: 3/4
K: Gmajor
|D E>F|G3 A B>A|F3 G/F/ E>D|E2 E>F E>D|B,3 G, A,>B,|
C3D (3EFE|D2G3 F|E2 FG3|A3 D E>F|
G3 A B>A|d>A F3 G/F/|E2 E>F G>E|D<B,B,>A, (3G,A,B,|
C3D (3EFE|D2G3 A|(3BcB A2 F>A|G3 D d>c|
B2 D>G B>d|e2c3 B|A>F D>F A>d|(3cdc B2 G>F|
E2 E>F (3GFE|D2 B3 D|E2 cd3|A3 D d>c|
B2 D>G B>d|e2c3 B|A>F D>F A>d|(3cdc B2 G>F|
E2 E>F (3GFE|DBBD (3Bcd|c2 A2 F2|G3||

